X: 34282
T: Repeal Of The Union, The
R: reel
M: 4/4
K: Dmixolydian
|:ADED ~A2AG|E2cE dEcB|ADED ~A2AG|E2cE EDD2:|
|:Adde fdec|ABcA dBcB|Adde fdcA|GEcE EDD2|
Adde fdec|ABcd eg~g2|afge fdcA|GEcE EDD2||

